X:0877
T:Lord Dunmore's Quick Step.
M:6/8
L:1/8
Q:3/8=88
I: :: :: :: :|
N:final notes in each part are printed as d2
Z:Jack Campin * www.campin.me.uk * 2009
K:D
d>ed def|gfe  afd|d>ed e2f|gec d3:|
f2d  e2a|f2d  e2a|d>ed e2f|gec d3:|
a>ba afd|g>ag gec|d>ed e2f|gec d3:|
F2A  G2B|A2c  d2d|F2A  G2f|gec d3:|
<end>
<start>
